X:452
T:Poppadum Polka
M:4/4
L:1/8
K:G
GB d2 GB d2 | e2 e2 d4 | c2 c2 B2 B2 | AGAB A4 |
GB d2 GB d2 | e2 e2 d4 | c2 c2 B2 B2 | AGAB G4 :|
g2 g2 g2 fe | d3 e dc B2 | A2 A2 e2 d2 | BABc e2 d2 |
g2 g2 g2 fe | d3 e dc B2 | A2 A2 e2 d2 | G2 G2 G4 :|
